X:288
T:Glenburney Rant, The
R:Reel
B:The Athole Collection
M:C|
L:1/8
K:E Minor
F|E/E/E BE G2 BE|A>BA>G F<D D<F|E/E/E BE G2 Bd|efe^d e2E:|
|:E(ee)f g2 f>e|defg afdf|1 edef g2 fe|efe^d e2E:|2 g2 bg f2 af|efe^d e2E||

